;Generated by Cura LulzBot Edition GCodeWriter Version: 3.6.40
;FLAVOR:Marlin
;TIME:27836
;Filament used: 12.7882m
;Layer height: 0.25
;Generated with Cura_SteamEngine 3.6.40-macos
M82 ;absolute extrusion mode
;This G-Code has been generated specifically for the LulzBot Sidekick with a Universal Tool Head
;
;The following lines can be uncommented for printer specific fine tuning
;More information can be found at https://marlinfw.org/meta/gcode/ (Note: current values are based on SE Tool Head)
;
;M92 E420                 ;Set Axis Steps-per-unit
;M301 P21.0 I1.78 D61.93  ;Set Hotend PID
;M906 E960                ;TMC Motor Current
;
G90                       ; absolute coordinate
M82                       ; set extruder to absolute mode
G92 E0                    ; set extruder position to 0
M117 Heating...           ; progress indicator message on LCD
M140 S60.0   ; start bed heating up
M109 R140        ; soften filament before homing Z
G28                       ; Home all axis
G1 E-15 F100              ; retract filament
M104 S140         ; start extruder heating to probe temp
M190 S60.0   ; wait for bed to reach printing temp
G29                                        ; start auto leveling
G0 X0 Y0 F5000
M109 R210 ; wait for extruder to reach initial printing temp
M117 SideKick Printing...                  ; progress indicator message on LCD
G1 Z2 E0 F75                               ; prime tiny bit of filament into the nozzle
M221 S100 T0
G92 E0
G1 F600 E-1.75
;LAYER_COUNT:256
;LAYER:0
M107
G0 F2625 X15.807 Y29.815 Z0.425
;TYPE:SKIRT
G1 F600 E0
G1 F900 X16.279 Y29.623 E0.01697
G1 X16.775 Y29.506 E0.03395
G1 X17.265 Y29.468 E0.05032
G1 X24.117 Y29.459 E0.27856
G1 X29.658 Y29.302 E0.46321
G1 X35.1 Y28.84 E0.64514
G1 X40.501 Y28.07 E0.82687
G1 X45.925 Y26.982 E1.01114
G1 X48.501 Y26.351 E1.09948
G1 X50.315 Y25.868 E1.16201
G1 X50.973 Y25.764 E1.1842
G1 X57.359 Y25.417 E1.39724
G1 X62.794 Y24.792 E1.57947
G1 X68.204 Y23.858 E1.76235
G1 X72.704 Y22.841 E1.91602
G1 X73.421 Y22.761 E1.94006
G1 X91.321 Y22.763 E2.53631
G1 X92.014 Y22.838 E2.55953
G1 X97.973 Y24.139 E2.7627
G1 X103.394 Y24.992 E2.9455
G1 X108.828 Y25.534 E3.12741
G1 X113.753 Y25.762 E3.29164
G1 X114.258 Y25.826 E3.30859
G1 X114.748 Y25.968 E3.32559
G1 X115.271 Y26.22 E3.34492
G1 X118.108 Y27.917 E3.45504
G1 X122.918 Y30.513 E3.63711
G1 X127.916 Y32.856 E3.82098
G1 X130.36 Y33.879 E3.90924
G1 X135.538 Y35.789 E4.09308
G1 X140.789 Y37.396 E4.276
G1 X146.13 Y38.705 E4.45917
G1 X148.744 Y39.227 E4.54797
G1 X154.186 Y40.081 E4.73146
G1 X159.627 Y40.621 E4.91359
G1 X165.086 Y40.852 E5.0956
G1 X170.569 Y40.774 E5.27826
G1 X176.04 Y40.385 E5.46096
G1 X179.359 Y40.003 E5.57224
G1 X179.731 Y39.982 E5.58465
G1 X196.647 Y39.983 E6.14813
G1 X197.349 Y40.06 E6.17166
G1 X204.084 Y41.549 E6.40142
G1 X206.682 Y41.993 E6.48921
G1 X212.178 Y42.698 E6.67379
G1 X215.788 Y42.995 E6.79444
G1 X216.291 Y43.076 E6.81142
G1 X216.775 Y43.236 E6.8284
G1 X217.228 Y43.468 E6.84535
G1 X217.639 Y43.769 E6.86232
G1 X217.998 Y44.13 E6.87928
G1 X218.297 Y44.544 E6.89629
G1 X218.527 Y44.998 E6.91324
G1 X218.683 Y45.483 E6.93021
G1 X218.771 Y46.234 E6.9554
G1 X218.77 Y58.219 E7.35462
G1 X218.73 Y58.727 E7.3716
G1 X218.611 Y59.223 E7.38859
G1 X218.33 Y59.851 E7.41151
G1 X215.181 Y65.273 E7.62037
G1 X212.722 Y70.152 E7.80236
G1 X210.549 Y75.149 E7.98387
G1 X208.648 Y80.302 E8.16683
G1 X207.041 Y85.551 E8.34968
G1 X205.734 Y90.884 E8.53259
G1 X205.207 Y93.515 E8.62197
G1 X204.355 Y98.948 E8.80515
G1 X203.815 Y104.404 E8.98778
G1 X203.66 Y107.124 E9.07853
G1 X203.573 Y111.22 E9.215
G1 X203.613 Y126.549 E9.72562
G1 X203.923 Y132.027 E9.90839
G1 X204.54 Y137.459 E10.09049
G1 X205.466 Y142.86 E10.27303
G1 X206.484 Y147.404 E10.42814
G1 X206.563 Y148.115 E10.45197
G1 X206.563 Y169.78 E11.17364
G1 X206.488 Y170.472 E11.19682
G1 X205.201 Y176.38 E11.39824
G1 X204.749 Y179.023 E11.48755
G1 X204.05 Y184.478 E11.67075
G1 X203.661 Y189.952 E11.85355
G1 X203.573 Y194.058 E11.99035
G1 X203.563 Y211.641 E12.57605
G1 X203.523 Y212.149 E12.59302
G1 X203.404 Y212.644 E12.60998
G1 X203.209 Y213.115 E12.62696
G1 X202.942 Y213.549 E12.64393
G1 X202.611 Y213.937 E12.66092
G1 X202.224 Y214.268 E12.67789
G1 X201.79 Y214.534 E12.69484
G1 X201.319 Y214.729 E12.71182
G1 X200.824 Y214.849 E12.72879
G1 X200.31 Y214.889 E12.74596
G1 X184.509 Y214.873 E13.2723
G1 X179.022 Y215.106 E13.45524
G1 X173.582 Y215.646 E13.63734
G1 X168.148 Y216.498 E13.82056
G1 X164.667 Y217.21 E13.93891
G1 X164.193 Y217.271 E13.95483
G1 X162.891 Y217.342 E13.99827
G1 X162.713 Y217.347 E14.0042
G1 X107.963 Y217.322 E15.82794
G1 X107.373 Y217.268 E15.84767
G1 X106.141 Y217.04 E15.88941
G1 X105.448 Y216.829 E15.91354
G1 X99.516 Y214.277 E16.12865
G1 X94.367 Y212.395 E16.31126
G1 X89.111 Y210.804 E16.49418
G1 X83.745 Y209.504 E16.6781
G1 X81.128 Y208.99 E16.76694
G1 X75.705 Y208.155 E16.94971
G1 X70.226 Y207.628 E17.13306
G1 X67.532 Y207.484 E17.22292
G1 X63.696 Y207.408 E17.35073
G1 X9.258 Y207.398 E19.16408
G1 X8.75 Y207.358 E19.18105
G1 X8.255 Y207.239 E19.19801
G1 X7.784 Y207.044 E19.21499
G1 X7.35 Y206.778 E19.23195
G1 X6.962 Y206.447 E19.24893
G1 X6.631 Y206.06 E19.2659
G1 X6.364 Y205.626 E19.28287
G1 X6.169 Y205.155 E19.29985
G1 X6.05 Y204.66 E19.31681
G1 X6.009 Y204.148 E19.33392
G1 X6.011 Y74.156 E23.664
G1 X6.051 Y73.648 E23.68097
G1 X6.24 Y72.957 E23.70484
G1 X8.021 Y68.469 E23.86568
G1 X9.774 Y63.269 E24.04847
G1 X11.229 Y57.987 E24.23097
G1 X11.844 Y55.318 E24.3222
G1 X12.373 Y52.675 E24.41199
G1 X13.225 Y47.242 E24.59517
G1 X13.765 Y41.801 E24.7773
G1 X13.998 Y36.304 E24.96058
G1 X14.019 Y32.699 E25.08066
G1 X14.062 Y32.192 E25.09761
G1 X14.184 Y31.697 E25.11459
G1 X14.381 Y31.227 E25.13157
G1 X14.65 Y30.794 E25.14855
G1 X14.982 Y30.408 E25.16551
G1 X15.371 Y30.079 E25.18248
G1 X15.807 Y29.815 E25.19946
G1 F600 E23.44946
;MESH:
G0 F2625 X18.022 Y32.044
G0 X18.022 Y33.473
G0 X32.775 Y52.751
G0 X32.845 Y52.821
;TYPE:WALL-INNER
G1 F600 E25.19946
G1 F900 X18.008 Y52.821 E25.69368
G1 X18.008 Y33.459 E26.33864
G1 X32.845 Y33.459 E26.83286
G1 X32.845 Y52.821 E27.47782
G0 F2625 X33.345 Y53.321
;TYPE:WALL-OUTER
G1 F900 X17.508 Y53.321 E28.00536
G1 X17.508 Y32.959 E28.68362
G1 X33.345 Y32.959 E29.21116
G1 X33.345 Y53.321 E29.88942
G0 F2625 X33.095 Y53.321
G0 X32.775 Y52.751
G0 X32.355 Y52.331
;TYPE:SKIN
G1 F900 X18.498 Y52.331 E30.351
G1 X18.498 Y33.949 E30.96332
G1 X32.355 Y33.949 E31.4249
G1 X32.355 Y52.331 E32.03721
G0 F2625 X18.871 Y52.105
G1 F900 X18.722 Y51.956 E32.04423
G0 F2625 X18.722 Y51.249
G1 F900 X19.578 Y52.105 E32.08455
G0 F2625 X20.285 Y52.105
G1 F900 X18.722 Y50.542 E32.15818
G0 F2625 X18.722 Y49.835
G1 F900 X20.992 Y52.105 E32.26512
G0 F2625 X21.699 Y52.105
G1 F900 X18.722 Y49.128 E32.40536
G0 F2625 X18.722 Y48.421
G1 F900 X22.406 Y52.105 E32.5789
G0 F2625 X23.113 Y52.105
G1 F900 X18.722 Y47.714 E32.78575
G0 F2625 X18.722 Y47.007
G1 F900 X23.821 Y52.105 E33.02593
G0 F2625 X24.528 Y52.105
G1 F900 X18.722 Y46.299 E33.29944
G0 F2625 X18.722 Y45.592
G1 F900 X25.235 Y52.105 E33.60626
G0 F2625 X25.942 Y52.105
G1 F900 X18.722 Y44.885 E33.94638
G0 F2625 X18.722 Y44.178
G1 F900 X26.649 Y52.105 E34.3198
G0 F2625 X27.356 Y52.105
G1 F900 X18.722 Y43.471 E34.72653
G0 F2625 X18.722 Y42.764
G1 F900 X28.063 Y52.105 E35.16657
G0 F2625 X28.77 Y52.105
G1 F900 X18.722 Y42.057 E35.63991
G0 F2625 X18.722 Y41.35
G1 F900 X29.477 Y52.105 E36.14655
G0 F2625 X30.184 Y52.105
G1 F900 X18.722 Y40.643 E36.68651
G0 F2625 X18.722 Y39.935
G1 F900 X30.892 Y52.105 E37.25981
G0 F2625 X31.599 Y52.105
G1 F900 X18.722 Y39.228 E37.86642
G0 F2625 X18.722 Y38.521
G1 F900 X32.13 Y51.929 E38.49804
G0 F2625 X32.13 Y51.222
G1 F900 X18.722 Y37.814 E39.12967
G0 F2625 X18.722 Y37.107
G1 F900 X32.13 Y50.515 E39.76129
G0 F2625 X32.13 Y49.807
G1 F900 X18.722 Y36.4 E40.39289
G0 F2625 X18.722 Y35.693
G1 F900 X32.13 Y49.1 E41.02449
G0 F2625 X32.13 Y48.393
G1 F900 X18.722 Y34.986 E41.65609
G0 F2625 X18.722 Y34.279
G1 F900 X32.13 Y47.686 E42.28769
G0 F2625 X32.13 Y46.979
G1 F900 X19.324 Y34.173 E42.89095
G0 F2625 X20.031 Y34.173
G1 F900 X32.13 Y46.272 E43.46091
G0 F2625 X32.13 Y45.565
G1 F900 X20.738 Y34.173 E43.99757
G0 F2625 X21.445 Y34.173
G1 F900 X32.13 Y44.858 E44.50092
G0 F2625 X32.13 Y44.151
G1 F900 X22.152 Y34.173 E44.97096
G0 F2625 X22.86 Y34.173
G1 F900 X32.13 Y43.443 E45.40765
G0 F2625 X32.13 Y42.736
G1 F900 X23.567 Y34.173 E45.81104
G0 F2625 X24.274 Y34.173
G1 F900 X32.13 Y42.029 E46.18112
G0 F2625 X32.13 Y41.322
G1 F900 X24.981 Y34.173 E46.51789
G0 F2625 X25.688 Y34.173
G1 F900 X32.13 Y40.615 E46.82136
G0 F2625 X32.13 Y39.908
G1 F900 X26.395 Y34.173 E47.09152
G0 F2625 X27.102 Y34.173
G1 F900 X32.13 Y39.201 E47.32838
G0 F2625 X32.13 Y38.494
G1 F900 X27.809 Y34.173 E47.53194
G0 F2625 X28.516 Y34.173
G1 F900 X32.13 Y37.787 E47.70218
G0 F2625 X32.13 Y37.079
G1 F900 X29.224 Y34.173 E47.83908
G0 F2625 X29.931 Y34.173
G1 F900 X32.13 Y36.372 E47.94267
G0 F2625 X32.13 Y35.665
G1 F900 X30.638 Y34.173 E48.01296
G0 F2625 X31.345 Y34.173
G1 F900 X32.13 Y34.958 E48.04994
G0 F2625 X32.13 Y34.251
G1 F900 X32.052 Y34.173 E48.05361
G1 F600 E46.30361
G0 F2625 X32.831 Y33.473
G0 X34.26 Y33.473
G0 X50.482 Y33.473
G0 X51.917 Y33.473
G0 X90.487 Y29.819
G0 X90.557 Y29.749
;TYPE:WALL-INNER
G1 F600 E48.05361
G1 F900 X112.857 Y29.749 E48.79643
G1 X112.857 Y40.249 E49.14619
G1 X86.627 Y40.249 E50.01992
G1 X86.627 Y43.249 E50.11985
G1 X78.127 Y43.249 E50.40299
G1 X78.127 Y40.249 E50.50292
G1 X51.897 Y40.249 E51.37665
G1 X51.897 Y29.749 E51.72641
G1 X74.187 Y29.749 E52.4689
G1 X74.187 Y26.749 E52.56883
G1 X90.557 Y26.749 E53.11412
G1 X90.557 Y29.749 E53.21405
G0 F2625 X91.057 Y29.249
;TYPE:WALL-OUTER
G1 F900 X113.357 Y29.249 E53.95687
G1 X113.357 Y40.749 E54.33994
G1 X87.127 Y40.749 E55.21367
G1 X87.127 Y43.749 E55.3136
G1 X77.627 Y43.749 E55.63005
G1 X77.627 Y40.749 E55.72998
G1 X51.397 Y40.749 E56.60371
G1 X51.397 Y29.249 E56.98678
G1 X73.687 Y29.249 E57.72927
G1 X73.687 Y26.249 E57.8292
G1 X91.057 Y26.249 E58.4078
G1 X91.057 Y29.249 E58.50773
G0 F2625 X91.307 Y29.249
G0 X91.307 Y29.849
G0 X90.067 Y30.239
;TYPE:SKIN
G1 F900 X112.367 Y30.239 E59.25055
G1 X112.367 Y39.759 E59.56767
G1 X86.137 Y39.759 E60.4414
G1 X86.137 Y42.759 E60.54133
G1 X78.617 Y42.759 E60.79182
G1 X78.617 Y39.759 E60.89176
G1 X52.387 Y39.759 E61.76549
G1 X52.387 Y30.239 E62.0826
G1 X74.677 Y30.239 E62.82509
G1 X74.677 Y27.239 E62.92502
G1 X90.067 Y27.239 E63.43767
G1 X90.067 Y30.239 E63.5376
G0 F2625 X112.141 Y30.824
G1 F900 X111.781 Y30.464 E63.55456
G0 F2625 X111.074 Y30.464
G1 F900 X112.141 Y31.531 E63.60482
G0 F2625 X112.141 Y32.238
G1 F900 X110.367 Y30.464 E63.68839
G0 F2625 X109.66 Y30.464
G1 F900 X112.141 Y32.945 E63.80527
G0 F2625 X112.141 Y33.652
G1 F900 X108.953 Y30.464 E63.95545
G0 F2625 X108.246 Y30.464
G1 F900 X112.141 Y34.359 E64.13893
G0 F2625 X112.141 Y35.066
G1 F900 X107.538 Y30.464 E64.35575
G0 F2625 X106.831 Y30.464
G1 F900 X112.141 Y35.773 E64.60586
G0 F2625 X112.141 Y36.481
G1 F900 X106.124 Y30.464 E64.88931
G0 F2625 X105.417 Y30.464
G1 F900 X112.141 Y37.188 E65.20607
G0 F2625 X112.141 Y37.895
G1 F900 X104.71 Y30.464 E65.55613
G0 F2625 X104.003 Y30.464
G1 F900 X112.141 Y38.602 E65.93949
G0 F2625 X112.141 Y39.309
G1 F900 X103.296 Y30.464 E66.35616
G0 F2625 X102.589 Y30.464
G1 F900 X111.658 Y39.533 E66.78338
G0 F2625 X110.951 Y39.533
G1 F900 X101.882 Y30.464 E67.21061
G0 F2625 X101.174 Y30.464
G1 F900 X110.244 Y39.533 E67.63785
G0 F2625 X109.537 Y39.533
G1 F900 X100.467 Y30.464 E68.0651
G0 F2625 X99.76 Y30.464
G1 F900 X108.83 Y39.533 E68.49234
G0 F2625 X108.122 Y39.533
G1 F900 X99.053 Y30.464 E68.91956
G0 F2625 X98.346 Y30.464
G1 F900 X107.415 Y39.533 E69.34679
G0 F2625 X106.708 Y39.533
G1 F900 X97.639 Y30.464 E69.77401
G0 F2625 X96.932 Y30.464
G1 F900 X106.001 Y39.533 E70.20123
G0 F2625 X105.294 Y39.533
G1 F900 X96.225 Y30.464 E70.62845
G0 F2625 X95.518 Y30.464
G1 F900 X104.587 Y39.533 E71.05568
G0 F2625 X103.88 Y39.533
G1 F900 X94.81 Y30.464 E71.48292
G0 F2625 X94.103 Y30.464
G1 F900 X103.173 Y39.533 E71.91017
G0 F2625 X102.466 Y39.533
G1 F900 X93.396 Y30.464 E72.33741
G0 F2625 X92.689 Y30.464
G1 F900 X101.759 Y39.533 E72.76466
G0 F2625 X101.051 Y39.533
G1 F900 X91.982 Y30.464 E73.19188
G0 F2625 X91.275 Y30.464
G1 F900 X100.344 Y39.533 E73.6191
G0 F2625 X99.637 Y39.533
G1 F900 X90.568 Y30.464 E74.04632
G0 F2625 X89.861 Y30.464
G1 F900 X98.93 Y39.533 E74.47355
G0 F2625 X98.223 Y39.533
G1 F900 X86.153 Y27.464 E75.04212
G0 F2625 X86.86 Y27.464
G1 F900 X89.841 Y30.444 E75.18252
G0 F2625 X89.841 Y29.737
G1 F900 X87.568 Y27.464 E75.2896
G0 F2625 X88.275 Y27.464
G1 F900 X89.841 Y29.03 E75.36337
G0 F2625 X89.841 Y28.323
G1 F900 X88.982 Y27.464 E75.40383
G0 F2625 X89.689 Y27.464
G1 F900 X89.841 Y27.616 E75.411
G0 F2625 X85.446 Y27.464
G1 F900 X97.516 Y39.533 E75.97956
G0 F2625 X96.809 Y39.533
G1 F900 X84.739 Y27.464 E76.54813
G0 F2625 X84.032 Y27.464
G1 F900 X96.102 Y39.533 E77.1167
G0 F2625 X95.395 Y39.533
G1 F900 X83.325 Y27.464 E77.68527
G0 F2625 X82.618 Y27.464
G1 F900 X94.687 Y39.533 E78.25382
G0 F2625 X93.98 Y39.533
G1 F900 X81.911 Y27.464 E78.82237
G0 F2625 X81.204 Y27.464
G1 F900 X93.273 Y39.533 E79.39091
G0 F2625 X92.566 Y39.533
G1 F900 X80.497 Y27.464 E79.95946
G0 F2625 X79.789 Y27.464
G1 F900 X91.859 Y39.533 E80.52803
G0 F2625 X91.152 Y39.533
G1 F900 X79.082 Y27.464 E81.0966
G0 F2625 X78.375 Y27.464
G1 F900 X90.445 Y39.533 E81.66517
G0 F2625 X89.738 Y39.533
G1 F900 X77.668 Y27.464 E82.23374
G0 F2625 X76.961 Y27.464
G1 F900 X89.031 Y39.533 E82.80231
G0 F2625 X88.324 Y39.533
G1 F900 X76.254 Y27.464 E83.37087
G0 F2625 X75.547 Y27.464
G1 F900 X87.616 Y39.533 E83.93942
G0 F2625 X86.909 Y39.533
G1 F900 X74.9 Y27.524 E84.50514
G0 F2625 X74.9 Y28.231
G1 F900 X86.202 Y39.533 E85.03755
G0 F2625 X85.911 Y39.949
G1 F900 X74.9 Y28.939 E85.55624
G0 F2625 X74.9 Y29.646
G1 F900 X85.911 Y40.656 E86.07492
G0 F2625 X85.911 Y41.363
G1 F900 X74.9 Y30.353 E86.5936
G0 F2625 X74.304 Y30.464
G1 F900 X85.911 Y42.07 E87.14036
G0 F2625 X85.667 Y42.533
G1 F900 X73.597 Y30.464 E87.70893
G0 F2625 X72.89 Y30.464
G1 F900 X84.96 Y42.533 E88.2775
G0 F2625 X84.253 Y42.533
G1 F900 X72.183 Y30.464 E88.84607
G0 F2625 X71.476 Y30.464
G1 F900 X83.546 Y42.533 E89.41464
G0 F2625 X82.838 Y42.533
G1 F900 X70.769 Y30.464 E89.98318
G0 F2625 X70.062 Y30.464
G1 F900 X82.131 Y42.533 E90.55173
G0 F2625 X81.424 Y42.533
G1 F900 X78.84 Y39.95 E90.67343
G0 F2625 X78.425 Y39.534
G1 F900 X69.355 Y30.464 E91.1007
G0 F2625 X68.648 Y30.464
G1 F900 X77.718 Y39.534 E91.52797
G0 F2625 X77.01 Y39.534
G1 F900 X67.94 Y30.464 E91.95524
G0 F2625 X67.233 Y30.464
G1 F900 X76.303 Y39.534 E92.38251
G0 F2625 X75.596 Y39.534
G1 F900 X66.526 Y30.464 E92.80978
G0 F2625 X65.819 Y30.464
G1 F900 X74.889 Y39.534 E93.23705
G0 F2625 X74.182 Y39.534
G1 F900 X65.112 Y30.464 E93.66432
G0 F2625 X64.405 Y30.464
G1 F900 X73.475 Y39.534 E94.09159
G0 F2625 X72.768 Y39.534
G1 F900 X63.698 Y30.464 E94.51886
G0 F2625 X62.991 Y30.464
G1 F900 X72.061 Y39.534 E94.94613
G0 F2625 X71.354 Y39.534
G1 F900 X62.284 Y30.464 E95.3734
G0 F2625 X61.576 Y30.464
G1 F900 X70.647 Y39.534 E95.80069
G0 F2625 X69.939 Y39.534
G1 F900 X60.869 Y30.464 E96.22796
G0 F2625 X60.162 Y30.464
G1 F900 X69.232 Y39.534 E96.65523
G0 F2625 X68.525 Y39.534
G1 F900 X59.455 Y30.464 E97.0825
G0 F2625 X58.748 Y30.464
G1 F900 X67.818 Y39.534 E97.50976
G0 F2625 X67.111 Y39.534
G1 F900 X58.041 Y30.464 E97.93703
G0 F2625 X57.334 Y30.464
G1 F900 X66.404 Y39.534 E98.3643
G0 F2625 X65.697 Y39.534
G1 F900 X56.627 Y30.464 E98.79157
G0 F2625 X55.92 Y30.464
G1 F900 X64.99 Y39.534 E99.21884
G0 F2625 X64.283 Y39.534
G1 F900 X55.213 Y30.464 E99.64611
G0 F2625 X54.505 Y30.464
G1 F900 X63.575 Y39.534 E100.07338
G0 F2625 X62.868 Y39.534
G1 F900 X53.798 Y30.464 E100.50065
G0 F2625 X53.091 Y30.464
G1 F900 X62.161 Y39.534 E100.92792
G0 F2625 X61.454 Y39.534
G1 F900 X52.611 Y30.691 E101.34449
G0 F2625 X52.611 Y31.398
G1 F900 X60.747 Y39.534 E101.72776
G0 F2625 X60.04 Y39.534
G1 F900 X52.611 Y32.105 E102.07773
G0 F2625 X52.611 Y32.812
G1 F900 X59.333 Y39.534 E102.39439
G0 F2625 X58.626 Y39.534
G1 F900 X52.611 Y33.519 E102.67774
