;Generated by Cura LulzBot Edition GCodeWriter Version: 3.6.40
;FLAVOR:Marlin
;TIME:17448
;Filament used: 8.61051m
;Layer height: 0.25
;Generated with Cura_SteamEngine 3.6.40-macos
M82 ;absolute extrusion mode
;This G-Code has been generated specifically for the LulzBot Sidekick with a Universal Tool Head
;
;The following lines can be uncommented for printer specific fine tuning
;More information can be found at https://marlinfw.org/meta/gcode/ (Note: current values are based on SE Tool Head)
;
;M92 E420                 ;Set Axis Steps-per-unit
;M301 P21.0 I1.78 D61.93  ;Set Hotend PID
;M906 E960                ;TMC Motor Current
;
G90                       ; absolute coordinate
M82                       ; set extruder to absolute mode
G92 E0                    ; set extruder position to 0
M117 Heating...           ; progress indicator message on LCD
M140 S60.0   ; start bed heating up
M109 R140        ; soften filament before homing Z
G28                       ; Home all axis
G1 E-15 F100              ; retract filament
M104 S140         ; start extruder heating to probe temp
M190 S60.0   ; wait for bed to reach printing temp
G29                                        ; start auto leveling
G0 X0 Y0 F5000
M109 R210 ; wait for extruder to reach initial printing temp
M117 SideKick Printing...                  ; progress indicator message on LCD
G1 Z2 E0 F75                               ; prime tiny bit of filament into the nozzle
M221 S100 T0
G92 E0
G1 F600 E-1.75
;LAYER_COUNT:12
;LAYER:0
M107
G0 F2625 X31.662 Y60.175 Z0.425
;TYPE:SKIRT
G1 F600 E0
G1 F900 X32.144 Y60.01 E0.01697
G1 X32.822 Y59.911 E0.03979
G1 X36.376 Y59.767 E0.15828
G1 X41.856 Y59.294 E0.3415
G1 X47.252 Y58.519 E0.52308
G1 X53.646 Y57.185 E0.74066
G1 X56.491 Y56.487 E0.83823
G1 X61.777 Y54.942 E1.02168
G1 X66.93 Y53.114 E1.20381
G1 X71.984 Y50.994 E1.38637
G1 X76.893 Y48.599 E1.56831
G1 X81.678 Y45.918 E1.75102
G1 X86.287 Y42.982 E1.93305
G1 X90.736 Y39.782 E2.1156
G1 X94.982 Y36.346 E2.29754
G1 X98.528 Y33.213 E2.45516
G1 X99.07 Y32.826 E2.47735
G1 X99.961 Y32.318 E2.51151
G1 X100.477 Y32.081 E2.53042
G1 X101.199 Y31.823 E2.55596
G1 X101.884 Y31.659 E2.57943
G1 X103.302 Y31.479 E2.62704
G1 X103.711 Y31.453 E2.64069
G1 X207.686 Y31.463 E6.10414
G1 X208.228 Y31.508 E6.12225
G1 X209.6 Y31.74 E6.1686
G1 X210.293 Y31.939 E6.19262
G1 X211.021 Y32.238 E6.21884
G1 X211.481 Y32.471 E6.23601
G1 X212.137 Y32.872 E6.26162
G1 X212.556 Y33.177 E6.27889
G1 X213.148 Y33.684 E6.30485
G1 X213.508 Y34.045 E6.32183
G1 X214.007 Y34.631 E6.34747
G1 X214.303 Y35.039 E6.36426
G1 X214.695 Y35.678 E6.38923
G1 X214.925 Y36.126 E6.40601
G1 X215.186 Y36.752 E6.4286
G1 X215.355 Y37.281 E6.4471
G1 X215.596 Y38.339 E6.48324
G1 X215.677 Y39.058 E6.50734
G1 X215.723 Y93.898 E8.33408
G1 X215.719 Y94.053 E8.33925
G1 X215.651 Y95.502 E8.38757
G1 X215.594 Y95.978 E8.40354
G1 X214.936 Y99.319 E8.51697
G1 X214.114 Y104.762 E8.70033
G1 X213.603 Y110.226 E8.88313
G1 X213.464 Y112.95 E8.97399
G1 X213.398 Y116.499 E9.09223
G1 X213.372 Y213.428 E12.32097
G1 X213.344 Y213.852 E12.33512
G1 X213.252 Y214.549 E12.35854
G1 X213.065 Y215.285 E12.38383
G1 X212.513 Y216.728 E12.4353
G1 X212.295 Y217.188 E12.45225
G1 X212.071 Y217.526 E12.46576
G1 X211.308 Y218.536 E12.50793
G1 X210.835 Y219.041 E12.53097
G1 X210.305 Y219.497 E12.55426
G1 X209.839 Y219.831 E12.57336
G1 X208.902 Y220.385 E12.60962
G1 X208.445 Y220.609 E12.62657
G1 X208.102 Y220.723 E12.63861
G1 X206.622 Y221.126 E12.68971
G1 X206.121 Y221.221 E12.70669
G1 X205.783 Y221.24 E12.71797
G1 X196.62 Y221.282 E13.0232
G1 X196.485 Y221.28 E13.02769
G1 X190.785 Y221.07 E13.21769
G1 X184.323 Y221.204 E13.43299
G1 X183.111 Y221.258 E13.4734
G1 X182.962 Y221.261 E13.47837
G1 X163.494 Y221.24 E14.12685
G1 X163.451 Y221.24 E14.12829
G1 X157.863 Y221.16 E14.31444
G1 X153.516 Y221.281 E14.4593
G1 X153.404 Y221.282 E14.46303
G1 X149.92 Y221.258 E14.57909
G1 X149.627 Y221.243 E14.58886
G1 X142.63 Y220.561 E14.82304
G1 X136.113 Y220.359 E15.04022
G1 X80.862 Y220.334 E16.88065
G1 X80.366 Y220.296 E16.89722
G1 X79.448 Y220.154 E16.92817
G1 X79.238 Y220.114 E16.93529
G1 X74.75 Y219.114 E17.08845
G1 X72.128 Y218.635 E17.17724
G1 X66.67 Y217.871 E17.36082
G1 X61.222 Y217.421 E17.54291
G1 X55.741 Y217.278 E17.72555
G1 X50.296 Y217.446 E17.90701
G1 X44.803 Y217.925 E18.09068
G1 X41.599 Y218.349 E18.19833
G1 X41.172 Y218.377 E18.21259
G1 X31.175 Y218.373 E18.54559
G1 X30.485 Y218.299 E18.56871
G1 X24.614 Y217.021 E18.76885
G1 X19.206 Y216.172 E18.9512
G1 X13.777 Y215.631 E19.13294
G1 X5.962 Y215.373 E19.3934
G1 X5.455 Y215.317 E19.41039
G1 X4.964 Y215.181 E19.42736
G1 X4.5 Y214.971 E19.44433
G1 X4.074 Y214.691 E19.46131
G1 X3.698 Y214.348 E19.47826
G1 X3.38 Y213.95 E19.49523
G1 X3.127 Y213.507 E19.51222
G1 X2.948 Y213.03 E19.5292
G1 X2.845 Y212.531 E19.54617
G1 X2.819 Y212.125 E19.55972
G1 X2.82 Y200.139 E19.95898
G1 X2.86 Y199.631 E19.97595
G1 X2.979 Y199.135 E19.99294
G1 X3.213 Y198.589 E20.01273
G1 X6.106 Y193.256 E20.21483
G1 X8.425 Y188.307 E20.39688
G1 X10.481 Y183.189 E20.58061
G1 X11.37 Y180.665 E20.66974
G1 X12.973 Y175.423 E20.85234
G1 X14.285 Y170.065 E21.03609
G1 X14.817 Y167.421 E21.12593
G1 X15.274 Y164.743 E21.21642
G1 X15.969 Y159.302 E21.39914
G1 X16.399 Y152.899 E21.6129
G1 X16.426 Y152.648 E21.62131
G1 X17.094 Y148.067 E21.77552
G1 X17.613 Y142.627 E21.95755
G1 X17.824 Y137.131 E22.14076
G1 X17.725 Y131.683 E22.32226
G1 X17.314 Y126.198 E22.50548
G1 X16.997 Y123.498 E22.59604
G1 X16.413 Y119.387 E22.73435
G1 X16.381 Y118.927 E22.74971
G1 X16.394 Y102.32 E23.3029
G1 X16.48 Y101.58 E23.32771
G1 X17.408 Y97.628 E23.46294
G1 X17.949 Y94.941 E23.55424
G1 X18.404 Y92.279 E23.6442
G1 X19.106 Y86.8 E23.8282
G1 X19.403 Y83.186 E23.94899
G1 X19.484 Y82.683 E23.96596
G1 X19.643 Y82.199 E23.98293
G1 X19.876 Y81.745 E23.99992
G1 X22.964 Y76.742 E24.19577
G1 X25.557 Y71.943 E24.37746
G1 X27.893 Y66.965 E24.56063
G1 X28.941 Y64.463 E24.65099
G1 X28.945 Y64.448 E24.65151
G1 X29.932 Y61.96 E24.74067
G1 X30.156 Y61.502 E24.75765
G1 X30.45 Y61.085 E24.77465
G1 X30.804 Y60.72 E24.79158
G1 X31.212 Y60.414 E24.80857
G1 X31.662 Y60.175 E24.82554
G1 F600 E23.07554
;MESH:
G0 F2625 X54.545 Y60.914
G0 X55.974 Y60.914
G0 X72.26 Y63.97
G0 X72.33 Y63.9
;TYPE:WALL-INNER
G1 F600 E24.82554
G1 F900 X94.63 Y63.9 E25.56837
G1 X94.63 Y74.4 E25.91812
G1 X68.4 Y74.4 E26.79186
G1 X68.4 Y77.4 E26.89179
G1 X59.9 Y77.4 E27.17492
G1 X59.9 Y74.4 E27.27486
G1 X33.67 Y74.4 E28.14859
G1 X33.67 Y63.9 E28.49834
G1 X55.96 Y63.9 E29.24083
G1 X55.96 Y60.9 E29.34076
G1 X72.33 Y60.9 E29.88605
G1 X72.33 Y63.9 E29.98599
G0 F2625 X72.83 Y63.4
;TYPE:WALL-OUTER
G1 F900 X95.13 Y63.4 E30.72881
G1 X95.13 Y74.9 E31.11188
G1 X68.9 Y74.9 E31.98561
G1 X68.9 Y77.9 E32.08554
G1 X59.4 Y77.9 E32.40199
G1 X59.4 Y74.9 E32.50192
G1 X33.17 Y74.9 E33.37565
G1 X33.17 Y63.4 E33.75872
G1 X55.46 Y63.4 E34.50121
G1 X55.46 Y60.4 E34.60114
G1 X72.83 Y60.4 E35.17974
G1 X72.83 Y63.4 E35.27967
G0 F2625 X73.08 Y63.4
G0 X73.08 Y64
G0 X71.84 Y64.39
;TYPE:SKIN
G1 F900 X94.14 Y64.39 E36.02249
G1 X94.14 Y73.91 E36.3396
G1 X67.91 Y73.91 E37.21333
G1 X67.91 Y76.91 E37.31327
G1 X60.39 Y76.91 E37.56376
G1 X60.39 Y73.91 E37.66369
G1 X34.16 Y73.91 E38.53742
G1 X34.16 Y64.39 E38.85454
G1 X56.45 Y64.39 E39.59702
G1 X56.45 Y61.39 E39.69696
G1 X71.84 Y61.39 E40.2096
G1 X71.84 Y64.39 E40.30953
G0 F2625 X93.914 Y64.923
G1 F900 X93.606 Y64.615 E40.32404
G0 F2625 X92.899 Y64.615
G1 F900 X93.914 Y65.63 E40.37186
G0 F2625 X93.914 Y66.337
G1 F900 X92.192 Y64.615 E40.45298
G0 F2625 X91.485 Y64.615
G1 F900 X93.914 Y67.044 E40.5674
G0 F2625 X93.914 Y67.751
G1 F900 X90.778 Y64.615 E40.71513
G0 F2625 X90.071 Y64.615
G1 F900 X93.914 Y68.458 E40.89617
G0 F2625 X93.914 Y69.165
G1 F900 X89.364 Y64.615 E41.11051
G0 F2625 X88.657 Y64.615
G1 F900 X93.914 Y69.872 E41.35816
G0 F2625 X93.914 Y70.579
G1 F900 X87.949 Y64.615 E41.63913
G0 F2625 X87.242 Y64.615
G1 F900 X93.914 Y71.286 E41.95341
G0 F2625 X93.914 Y71.994
G1 F900 X86.535 Y64.615 E42.30102
G0 F2625 X85.828 Y64.615
G1 F900 X93.914 Y72.701 E42.68194
G0 F2625 X93.914 Y73.408
G1 F900 X85.121 Y64.615 E43.09616
G0 F2625 X84.414 Y64.615
G1 F900 X93.483 Y73.684 E43.52338
G0 F2625 X92.776 Y73.684
G1 F900 X83.707 Y64.615 E43.9506
G0 F2625 X83 Y64.615
G1 F900 X92.069 Y73.684 E44.37782
G0 F2625 X91.362 Y73.684
G1 F900 X82.293 Y64.615 E44.80505
G0 F2625 X81.585 Y64.615
G1 F900 X90.655 Y73.684 E45.23229
G0 F2625 X89.948 Y73.684
G1 F900 X80.878 Y64.615 E45.65954
G0 F2625 X80.171 Y64.615
G1 F900 X89.241 Y73.684 E46.08678
G0 F2625 X88.534 Y73.684
G1 F900 X79.464 Y64.615 E46.51403
G0 F2625 X78.757 Y64.615
G1 F900 X87.826 Y73.684 E46.94125
G0 F2625 X87.119 Y73.684
G1 F900 X78.05 Y64.615 E47.36847
G0 F2625 X77.343 Y64.615
G1 F900 X86.412 Y73.684 E47.79569
G0 F2625 X85.705 Y73.684
G1 F900 X76.636 Y64.615 E48.22292
G0 F2625 X75.929 Y64.615
G1 F900 X84.998 Y73.684 E48.65014
G0 F2625 X84.291 Y73.684
G1 F900 X75.222 Y64.615 E49.07736
G0 F2625 X74.514 Y64.615
G1 F900 X83.584 Y73.684 E49.50461
G0 F2625 X82.877 Y73.684
G1 F900 X73.807 Y64.615 E49.93185
G0 F2625 X73.1 Y64.615
G1 F900 X82.17 Y73.684 E50.3591
G0 F2625 X81.462 Y73.684
G1 F900 X72.393 Y64.615 E50.78632
G0 F2625 X71.686 Y64.615
G1 F900 X80.755 Y73.684 E51.21354
G0 F2625 X80.048 Y73.684
G1 F900 X67.978 Y61.614 E51.78214
G0 F2625 X67.271 Y61.614
G1 F900 X79.34 Y73.684 E52.3507
G0 F2625 X78.633 Y73.684
G1 F900 X66.564 Y61.614 E52.91927
G0 F2625 X65.857 Y61.614
G1 F900 X77.926 Y73.684 E53.48784
G0 F2625 X77.219 Y73.684
G1 F900 X65.149 Y61.614 E54.05644
G0 F2625 X64.442 Y61.614
G1 F900 X76.512 Y73.684 E54.62503
G0 F2625 X75.805 Y73.684
G1 F900 X63.735 Y61.614 E55.19362
G0 F2625 X63.028 Y61.614
G1 F900 X75.098 Y73.684 E55.76222
G0 F2625 X74.391 Y73.684
G1 F900 X62.321 Y61.614 E56.33081
G0 F2625 X61.614 Y61.614
G1 F900 X73.684 Y73.684 E56.8994
G0 F2625 X72.976 Y73.684
G1 F900 X60.907 Y61.614 E57.46797
G0 F2625 X60.2 Y61.614
G1 F900 X72.269 Y73.684 E58.03654
G0 F2625 X71.562 Y73.684
G1 F900 X59.493 Y61.614 E58.60511
G0 F2625 X58.786 Y61.614
G1 F900 X70.855 Y73.684 E59.17368
G0 F2625 X70.148 Y73.684
G1 F900 X58.078 Y61.614 E59.74227
G0 F2625 X57.371 Y61.614
G1 F900 X69.441 Y73.684 E60.31087
G0 F2625 X68.734 Y73.684
G1 F900 X56.674 Y61.624 E60.87899
G0 F2625 X56.674 Y62.331
G1 F900 X68.027 Y73.684 E61.41381
G0 F2625 X67.685 Y74.049
G1 F900 X56.674 Y63.038 E61.93251
G0 F2625 X56.674 Y63.745
G1 F900 X67.685 Y74.756 E62.45122
G0 F2625 X67.685 Y75.463
G1 F900 X56.674 Y64.452 E62.96992
G0 F2625 X56.128 Y64.614
G1 F900 X67.685 Y76.17 E63.51433
G0 F2625 X67.491 Y76.684
G1 F900 X55.421 Y64.614 E64.08292
G0 F2625 X54.714 Y64.614
G1 F900 X66.784 Y76.684 E64.65151
G0 F2625 X66.077 Y76.684
G1 F900 X54.007 Y64.614 E65.22011
G0 F2625 X53.3 Y64.614
G1 F900 X65.37 Y76.684 E65.7887
G0 F2625 X64.663 Y76.684
G1 F900 X52.593 Y64.614 E66.35729
G0 F2625 X51.886 Y64.614
G1 F900 X63.956 Y76.684 E66.92589
G0 F2625 X63.249 Y76.684
G1 F900 X60.614 Y74.049 E67.05001
G0 F2625 X60.614 Y74.756
G1 F900 X62.542 Y76.684 E67.14084
G0 F2625 X61.835 Y76.684
G1 F900 X60.614 Y75.463 E67.19836
G0 F2625 X60.614 Y76.17
G1 F900 X61.127 Y76.684 E67.22255
G0 F2625 X60.249 Y73.684
G1 F900 X51.178 Y64.614 E67.64984
G0 F2625 X50.471 Y64.614
G1 F900 X59.541 Y73.684 E68.07711
G0 F2625 X58.834 Y73.684
G1 F900 X49.764 Y64.614 E68.50438
G0 F2625 X49.057 Y64.614
G1 F900 X58.127 Y73.684 E68.93165
G0 F2625 X57.42 Y73.684
G1 F900 X48.35 Y64.614 E69.35892
G0 F2625 X47.643 Y64.614
G1 F900 X56.713 Y73.684 E69.78619
G0 F2625 X56.006 Y73.684
G1 F900 X46.936 Y64.614 E70.21346
G0 F2625 X46.229 Y64.614
G1 F900 X55.299 Y73.684 E70.64073
G0 F2625 X54.592 Y73.684
G1 F900 X45.522 Y64.614 E71.06799
G0 F2625 X44.815 Y64.614
G1 F900 X53.885 Y73.684 E71.49526
G0 F2625 X53.177 Y73.684
G1 F900 X44.107 Y64.614 E71.92253
G0 F2625 X43.4 Y64.614
G1 F900 X52.47 Y73.684 E72.3498
G0 F2625 X51.763 Y73.684
G1 F900 X42.693 Y64.614 E72.77707
G0 F2625 X41.986 Y64.614
G1 F900 X51.056 Y73.684 E73.20434
G0 F2625 X50.349 Y73.684
G1 F900 X41.279 Y64.614 E73.63161
G0 F2625 X40.572 Y64.614
G1 F900 X49.642 Y73.684 E74.05888
G0 F2625 X48.935 Y73.684
G1 F900 X39.865 Y64.614 E74.48615
G0 F2625 X39.158 Y64.614
G1 F900 X48.228 Y73.684 E74.91342
G0 F2625 X47.521 Y73.684
G1 F900 X38.451 Y64.614 E75.34069
G0 F2625 X37.743 Y64.614
G1 F900 X46.814 Y73.684 E75.76798
G0 F2625 X46.106 Y73.684
G1 F900 X37.036 Y64.614 E76.19525
G0 F2625 X36.329 Y64.614
G1 F900 X45.399 Y73.684 E76.62252
G0 F2625 X44.692 Y73.684
G1 F900 X35.622 Y64.614 E77.04979
G0 F2625 X34.915 Y64.614
G1 F900 X43.985 Y73.684 E77.47706
G0 F2625 X43.278 Y73.684
G1 F900 X34.385 Y64.79 E77.89601
G0 F2625 X34.385 Y65.497
G1 F900 X42.571 Y73.684 E78.28166
G0 F2625 X41.864 Y73.684
G1 F900 X34.385 Y66.204 E78.634
G0 F2625 X34.385 Y66.912
G1 F900 X41.157 Y73.684 E78.95302
G0 F2625 X40.45 Y73.684
G1 F900 X34.385 Y67.619 E79.23873
G0 F2625 X34.385 Y68.326
G1 F900 X39.742 Y73.684 E79.49111
G0 F2625 X39.035 Y73.684
G1 F900 X34.385 Y69.033 E79.71019
G0 F2625 X34.385 Y69.74
G1 F900 X38.328 Y73.684 E79.89596
G0 F2625 X37.621 Y73.684
G1 F900 X34.385 Y70.447 E80.04842
G0 F2625 X34.385 Y71.154
G1 F900 X36.914 Y73.684 E80.16758
G0 F2625 X36.207 Y73.684
G1 F900 X34.385 Y71.861 E80.25343
G0 F2625 X34.385 Y72.568
G1 F900 X35.5 Y73.684 E80.30598
G0 F2625 X34.793 Y73.684
G1 F900 X34.385 Y73.276 E80.3252
G0 F2625 X68.685 Y61.614
G1 F900 X71.614 Y64.543 E80.46318
G0 F2625 X71.614 Y63.836
G1 F900 X69.392 Y61.614 E80.56786
G0 F2625 X70.099 Y61.614
G1 F900 X71.614 Y63.129 E80.63923
G0 F2625 X71.614 Y62.421
G1 F900 X70.806 Y61.614 E80.67727
G0 F2625 X71.513 Y61.614
G1 F900 X71.614 Y61.714 E80.682
G1 F600 E78.932
G0 F2625 X70.368 Y74.38
G0 X70.368 Y75.815
G0 X70.368 Y87.399
G0 X70.368 Y88.834
G0 X70.368 Y130.749
G0 X70.438 Y130.679
;TYPE:WALL-INNER
G1 F600 E80.682
G1 F900 X73.438 Y130.679 E80.78193
G1 X73.438 Y150.849 E81.4538
G1 X70.438 Y150.849 E81.55373
G1 X70.438 Y192.714 E82.94827
G1 X59.938 Y192.714 E83.29803
G1 X59.938 Y173.884 E83.92526
G1 X56.938 Y173.884 E84.02519
G1 X56.938 Y158.484 E84.53817
G1 X59.938 Y158.484 E84.6381
G1 X59.938 Y123.124 E85.81596
G1 X56.938 Y123.124 E85.91589
G1 X56.938 Y107.694 E86.42987
G1 X59.938 Y107.694 E86.5298
G1 X59.938 Y88.814 E87.1587
G1 X70.438 Y88.814 E87.50846
G1 X70.438 Y130.679 E88.903
G0 F2625 X70.938 Y130.179
;TYPE:WALL-OUTER
G1 F900 X73.938 Y130.179 E89.00293
G1 X73.938 Y151.349 E89.70811
G1 X70.938 Y151.349 E89.80804
G1 X70.938 Y193.214 E91.20258
G1 X59.438 Y193.214 E91.58565
G1 X59.438 Y174.384 E92.21288
G1 X56.438 Y174.384 E92.31281
G1 X56.438 Y157.984 E92.8591
G1 X59.438 Y157.984 E92.95903
G1 X59.438 Y123.624 E94.10358
G1 X56.438 Y123.624 E94.20351
G1 X56.438 Y107.194 E94.7508
G1 X59.438 Y107.194 E94.85073
G1 X59.438 Y88.314 E95.47963
G1 X70.938 Y88.314 E95.8627
G1 X70.938 Y130.179 E97.25724
G0 F2625 X71.188 Y130.179
G0 X71.188 Y130.779
G0 X69.948 Y131.169
;TYPE:SKIN
G1 F900 X72.948 Y131.169 E97.35717
G1 X72.948 Y150.359 E97.99639
G1 X69.948 Y150.359 E98.09632
G1 X69.948 Y192.224 E99.49086
G1 X60.428 Y192.224 E99.80798
G1 X60.428 Y173.394 E100.43521
G1 X57.428 Y173.394 E100.53514
G1 X57.428 Y158.974 E101.01548
G1 X60.428 Y158.974 E101.11541
G1 X60.428 Y122.634 E102.32591
G1 X57.428 Y122.634 E102.42584
G1 X57.428 Y108.184 E102.90717
G1 X60.428 Y108.184 E103.0071
G1 X60.428 Y89.304 E103.636
G1 X69.948 Y89.304 E103.95312
G1 X69.948 Y131.169 E105.34766
G0 F2625 X69.723 Y90.229
G1 F900 X69.022 Y89.528 E105.38068
G0 F2625 X68.315 Y89.528
G1 F900 X69.723 Y90.936 E105.44701
G0 F2625 X69.723 Y91.643
G1 F900 X67.607 Y89.528 E105.54666
G0 F2625 X66.9 Y89.528
G1 F900 X69.723 Y92.35 E105.67963
G0 F2625 X69.723 Y93.058
G1 F900 X66.193 Y89.528 E105.84592
G0 F2625 X65.486 Y89.528
G1 F900 X69.723 Y93.765 E106.04551
G0 F2625 X69.723 Y94.472
G1 F900 X64.779 Y89.528 E106.27841
G0 F2625 X64.072 Y89.528
G1 F900 X69.723 Y95.179 E106.54462
G0 F2625 X69.723 Y95.886
G1 F900 X63.365 Y89.528 E106.84413
G0 F2625 X62.658 Y89.528
G1 F900 X69.723 Y96.593 E107.17695
G0 F2625 X69.723 Y97.3
G1 F900 X61.951 Y89.528 E107.54307
G0 F2625 X61.243 Y89.528
G1 F900 X69.723 Y98.007 E107.94253
G0 F2625 X69.723 Y98.714
