;Generated by Cura LulzBot Edition GCodeWriter Version: 3.6.40
;FLAVOR:Marlin
;TIME:19608
;Filament used: 9.32885m
;Layer height: 0.25
;Generated with Cura_SteamEngine 3.6.40-macos
M82 ;absolute extrusion mode
;This G-Code has been generated specifically for the LulzBot Sidekick with a Universal Tool Head
;
;The following lines can be uncommented for printer specific fine tuning
;More information can be found at https://marlinfw.org/meta/gcode/ (Note: current values are based on SE Tool Head)
;
;M92 E420                 ;Set Axis Steps-per-unit
;M301 P21.0 I1.78 D61.93  ;Set Hotend PID
;M906 E960                ;TMC Motor Current
;
G90                       ; absolute coordinate
M82                       ; set extruder to absolute mode
G92 E0                    ; set extruder position to 0
M117 Heating...           ; progress indicator message on LCD
M140 S60.0   ; start bed heating up
M109 R140        ; soften filament before homing Z
G28                       ; Home all axis
G1 E-15 F100              ; retract filament
M104 S140         ; start extruder heating to probe temp
M190 S60.0   ; wait for bed to reach printing temp
G29                                        ; start auto leveling
G0 X0 Y0 F5000
M109 R210 ; wait for extruder to reach initial printing temp
M117 SideKick Printing...                  ; progress indicator message on LCD
G1 Z2 E0 F75                               ; prime tiny bit of filament into the nozzle
M221 S100 T0
G92 E0
G1 F600 E-1.75
;LAYER_COUNT:56
;LAYER:0
M107
G0 F2625 X24.544 Y15.924 Z0.425
;TYPE:SKIRT
G1 F600 E0
G1 F900 X26.577 Y12.478 E0.13327
G1 X26.869 Y12.061 E0.15023
G1 X27.224 Y11.695 E0.16722
G1 X27.631 Y11.388 E0.1842
G1 X28.081 Y11.149 E0.20117
G1 X28.562 Y10.984 E0.21811
G1 X29.227 Y10.883 E0.24052
G1 X31.565 Y10.776 E0.31848
G1 X37.035 Y10.305 E0.50136
G1 X42.433 Y9.53 E0.68301
G1 X49.867 Y7.953 E0.93615
G1 X50.542 Y7.882 E0.95876
G1 X68.419 Y7.88 E1.55425
G1 X69.115 Y7.955 E1.57757
G1 X75.28 Y9.307 E1.78781
G1 X77.917 Y9.756 E1.87691
G1 X83.332 Y10.452 E2.05877
G1 X89.865 Y10.89 E2.27687
G1 X89.934 Y10.896 E2.27918
G1 X93.756 Y11.235 E2.40699
G1 X99.237 Y11.467 E2.58973
G1 X104.725 Y11.388 E2.77256
G1 X112.137 Y10.868 E3.02006
G1 X117.595 Y10.244 E3.20305
G1 X123.007 Y9.312 E3.38598
G1 X125.631 Y8.746 E3.4754
G1 X128.176 Y8.122 E3.56268
G1 X128.679 Y8.04 E3.57966
G1 X128.95 Y8.029 E3.58869
G1 X145.869 Y8.027 E4.15227
G1 X146.338 Y8.061 E4.16794
G1 X150.919 Y8.729 E4.32214
G1 X156.359 Y9.248 E4.50418
G1 X161.855 Y9.459 E4.68738
G1 X167.302 Y9.36 E4.86886
G1 X172.787 Y8.949 E5.05208
G1 X175.488 Y8.632 E5.14266
G1 X179.599 Y8.048 E5.28098
G1 X180.059 Y8.016 E5.29634
G1 X196.667 Y8.029 E5.84956
G1 X197.407 Y8.115 E5.87437
G1 X201.37 Y9.046 E6.00997
G1 X204.059 Y9.587 E6.10134
G1 X206.688 Y10.036 E6.19018
G1 X212.184 Y10.741 E6.37476
G1 X215.794 Y11.038 E6.49541
G1 X216.297 Y11.119 E6.51238
G1 X216.781 Y11.279 E6.52936
G1 X217.234 Y11.511 E6.54632
G1 X217.645 Y11.812 E6.56329
G1 X218.004 Y12.173 E6.58025
G1 X218.303 Y12.587 E6.59726
G1 X218.533 Y13.041 E6.61421
G1 X218.689 Y13.526 E6.63118
G1 X218.777 Y14.277 E6.65637
G1 X218.776 Y26.261 E7.05556
G1 X218.736 Y26.769 E7.07253
G1 X218.617 Y27.265 E7.08952
G1 X218.47 Y27.637 E7.10285
G1 X216.206 Y32.482 E7.28099
G1 X215.178 Y34.936 E7.36961
G1 X213.264 Y40.125 E7.55384
G1 X211.658 Y45.371 E7.7366
G1 X210.345 Y50.721 E7.92009
G1 X209.825 Y53.329 E8.00868
G1 X208.971 Y58.771 E8.19217
G1 X208.431 Y64.211 E8.37427
G1 X208.199 Y69.672 E8.55634
G1 X208.277 Y75.154 E8.73897
G1 X208.663 Y80.606 E8.92103
G1 X209.36 Y86.048 E9.10379
G1 X210.363 Y91.444 E9.28661
G1 X210.959 Y94.036 E9.3752
G1 X212.424 Y99.36 E9.55914
G1 X214.181 Y104.596 E9.74311
G1 X214.305 Y105.089 E9.76004
G1 X215.36 Y111.337 E9.97111
G1 X216.272 Y115.453 E10.11154
G1 X216.349 Y116.156 E10.1351
G1 X216.349 Y120.15 E10.26814
G1 X216.276 Y120.835 E10.29109
G1 X215.08 Y126.379 E10.48001
G1 X213.5 Y136.395 E10.81777
G1 X212.96 Y141.841 E11.00007
G1 X212.729 Y147.3 E11.18207
G1 X212.808 Y152.785 E11.3648
G1 X213.194 Y158.235 E11.5468
G1 X213.892 Y163.677 E11.72955
G1 X214.89 Y169.044 E11.9114
G1 X215.502 Y171.701 E12.00222
G1 X216.439 Y175.247 E12.12439
G1 X216.53 Y175.749 E12.14139
G1 X216.547 Y176.072 E12.15216
G1 X216.557 Y181.136 E12.32084
G1 X216.755 Y187.581 E12.53563
G1 X216.757 Y187.686 E12.53913
G1 X216.747 Y193.854 E12.74459
G1 X216.745 Y193.948 E12.74772
G1 X216.557 Y200.105 E12.95291
G1 X216.546 Y205.124 E13.12009
G1 X216.505 Y205.632 E13.13707
G1 X216.385 Y206.127 E13.15404
G1 X216.189 Y206.598 E13.17103
G1 X215.922 Y207.031 E13.18797
G1 X215.591 Y207.418 E13.20494
G1 X215.203 Y207.749 E13.22193
G1 X214.768 Y208.014 E13.23889
G1 X214.297 Y208.209 E13.25587
G1 X213.802 Y208.327 E13.27282
G1 X213.298 Y208.367 E13.28966
G1 X196.646 Y208.376 E13.84435
G1 X191.106 Y208.533 E14.02896
G1 X185.664 Y208.995 E14.21089
G1 X180.263 Y209.765 E14.39262
G1 X174.839 Y210.853 E14.57689
G1 X172.269 Y211.483 E14.66503
G1 X169.606 Y212.215 E14.75703
G1 X164.379 Y213.896 E14.93993
G1 X159.271 Y215.863 E15.12225
G1 X154.267 Y218.125 E15.30518
G1 X151.853 Y219.34 E15.3952
G1 X145.483 Y222.958 E15.63922
G1 X145.13 Y223.131 E15.65232
G1 X144.507 Y223.391 E15.67481
G1 X144.067 Y223.539 E15.69027
G1 X143.222 Y223.757 E15.71934
G1 X142.637 Y223.852 E15.73908
G1 X141.721 Y223.916 E15.76967
G1 X141.483 Y223.924 E15.7776
G1 X131.765 Y223.892 E16.10131
G1 X131.648 Y223.889 E16.10521
G1 X127.202 Y223.714 E16.25342
G1 X120.734 Y223.848 E16.46892
G1 X119.522 Y223.902 E16.50933
G1 X119.373 Y223.905 E16.5143
G1 X99.904 Y223.884 E17.16282
G1 X99.861 Y223.884 E17.16425
G1 X94.273 Y223.804 E17.35041
G1 X89.927 Y223.925 E17.49523
G1 X89.816 Y223.926 E17.49893
G1 X86.335 Y223.903 E17.61488
G1 X85.934 Y223.875 E17.62827
G1 X82.667 Y223.447 E17.73803
G1 X77.147 Y222.931 E17.9227
G1 X74.457 Y222.793 E18.01243
G1 X62.641 Y222.692 E18.40603
G1 X62.541 Y222.689 E18.40937
G1 X58.105 Y222.514 E18.55725
G1 X49.175 Y222.723 E18.85479
G1 X49.097 Y222.724 E18.85739
G1 X31.482 Y222.713 E19.44415
G1 X31.382 Y222.711 E19.44748
G1 X27.938 Y222.603 E19.56226
G1 X18.232 Y222.727 E19.8856
G1 X18.032 Y222.723 E19.89226
G1 X16.614 Y222.654 E19.93955
G1 X16.013 Y222.568 E19.95977
G1 X15.23 Y222.38 E19.9866
G1 X14.746 Y222.223 E20.00355
G1 X14.502 Y222.11 E20.0125
G1 X13.145 Y221.412 E20.06333
G1 X12.519 Y220.991 E20.08846
G1 X11.944 Y220.499 E20.11367
G1 X11.581 Y220.135 E20.1308
G1 X11.077 Y219.542 E20.15672
G1 X10.782 Y219.135 E20.17346
G1 X10.388 Y218.492 E20.19858
G1 X10.157 Y218.04 E20.21549
G1 X9.861 Y217.327 E20.24121
G1 X9.68 Y216.739 E20.2617
G1 X9.474 Y215.743 E20.29558
G1 X9.407 Y215.086 E20.31758
G1 X9.362 Y116.61 E23.59785
G1 X9.205 Y111.07 E23.78246
G1 X8.743 Y105.628 E23.96439
G1 X7.969 Y100.199 E24.14706
G1 X7.319 Y96.737 E24.2644
G1 X7.268 Y96.312 E24.27865
G1 X7.198 Y95.016 E24.32189
G1 X7.193 Y94.84 E24.32775
G1 X7.218 Y40.09 E26.15149
G1 X7.271 Y39.507 E26.17099
G1 X7.492 Y38.297 E26.21197
G1 X7.622 Y37.805 E26.22892
G1 X7.789 Y37.413 E26.24311
G1 X8.488 Y36.032 E26.29467
G1 X8.753 Y35.597 E26.31164
G1 X9.043 Y35.249 E26.32673
G1 X11.032 Y33.177 E26.4224
G1 X14.79 Y29.138 E26.60617
G1 X18.28 Y24.931 E26.78825
G1 X21.525 Y20.538 E26.97017
G1 X24.544 Y15.924 E27.15385
G1 F600 E25.40385
G0 F2625 X28.708 Y26.248
G0 X29.241 Y26.781
G0 X42.452 Y34.812
G0 X119.375 Y34.803
G0 X120.214 Y34.87
G0 X121.062 Y35.071
G0 X121.874 Y35.407
G0 X122.621 Y35.862
G0 X123.286 Y36.427
G0 X123.855 Y37.09
G0 X124.313 Y37.838
G0 X124.649 Y38.642
G0 X146.947 Y110.035
G0 X147.154 Y110.888
G0 X157.6 Y168.821
G0 X158.031 Y169.252
G0 X187.327 Y187.601
;TYPE:SUPPORT
G1 F600 E27.15385
G1 F900 X213.257 Y187.601 E28.01758
G1 X213.257 Y193.601 E28.21745
G1 X187.327 Y193.601 E29.08118
G1 X187.327 Y187.601 E29.28105
G0 F2625 X187.527 Y188.371
G1 F900 X213.057 Y188.371 E30.13146
G0 F2625 X211.709 Y187.801
G1 F900 X211.709 Y193.401 E30.318
G0 F2625 X210.042 Y193.401
G1 F900 X210.042 Y187.801 E30.50453
G0 F2625 X208.375 Y187.801
G1 F900 X208.375 Y193.401 E30.69107
G0 F2625 X206.708 Y193.401
G1 F900 X206.708 Y187.801 E30.87761
G0 F2625 X205.041 Y187.801
G1 F900 X205.041 Y193.401 E31.06415
G0 F2625 X203.374 Y193.401
G1 F900 X203.374 Y187.801 E31.25069
G0 F2625 X201.707 Y187.801
G1 F900 X201.707 Y193.401 E31.43722
G0 F2625 X200.04 Y193.401
G1 F900 X200.04 Y187.801 E31.62376
G0 F2625 X198.373 Y187.801
G1 F900 X198.373 Y193.401 E31.8103
G0 F2625 X196.706 Y193.401
G1 F900 X196.706 Y187.801 E31.99684
G0 F2625 X195.039 Y187.801
G1 F900 X195.039 Y193.401 E32.18338
G0 F2625 X193.372 Y193.401
G1 F900 X193.372 Y187.801 E32.36991
G0 F2625 X191.705 Y187.801
G1 F900 X191.705 Y193.401 E32.55645
G0 F2625 X190.038 Y193.401
G1 F900 X190.038 Y187.801 E32.74299
G0 F2625 X188.371 Y187.801
G1 F900 X188.371 Y193.401 E32.92953
G0 F2625 X187.527 Y193.372
G1 F900 X213.057 Y193.372 E33.77994
G0 F2625 X213.057 Y191.705
G1 F900 X187.527 Y191.705 E34.63036
G0 F2625 X187.527 Y190.038
G1 F900 X213.057 Y190.038 E35.48077
G1 F600 E33.73077
;MESH:
G0 F2625 X213.968 Y185.979
G0 X213.968 Y175.948
G0 X170.908 Y129.908
G0 X170.922 Y168.821
G0 X170.389 Y169.354
G0 X158.133 Y169.354
G0 X157.6 Y168.821
G0 X154.6 Y150.041
G0 X154.6 Y132.835
G0 X124.649 Y38.642
G0 X124.313 Y37.838
G0 X123.855 Y37.09
G0 X123.286 Y36.427
G0 X122.748 Y35.97
G0 X90.282 Y14.884
G0 X88.853 Y14.884
G0 X67.608 Y14.94
G0 X67.678 Y14.87
;TYPE:WALL-INNER
G1 F600 E35.48077
G1 F900 X88.867 Y14.87 E36.18658
G1 X88.867 Y25.37 E36.53634
G1 X77.973 Y25.37 E36.89922
G1 X77.973 Y17.47 E37.16238
G1 X64.223 Y17.47 E37.62039
G1 X64.223 Y25.37 E37.88355
G1 X63.743 Y25.37 E37.89953
G1 X63.743 Y28.37 E37.99947
G1 X55.243 Y28.37 E38.2826
G1 X55.243 Y25.37 E38.38253
G1 X46.263 Y25.37 E38.68166
G1 X46.263 Y17.87 E38.93149
G1 X35.763 Y17.87 E39.28125
G1 X35.763 Y25.37 E39.53108
G1 X30.119 Y25.37 E39.71908
G1 X30.119 Y14.87 E40.06884
G1 X51.308 Y14.87 E40.77465
G1 X51.308 Y11.87 E40.87458
G1 X67.678 Y11.87 E41.41987
G1 X67.678 Y14.87 E41.5198
G0 F2625 X68.178 Y14.37
;TYPE:WALL-OUTER
G1 F900 X89.367 Y14.37 E42.22562
G1 X89.367 Y25.87 E42.60869
G1 X77.473 Y25.87 E43.00488
G1 X77.473 Y17.97 E43.26803
G1 X64.723 Y17.97 E43.69274
G1 X64.723 Y25.87 E43.95589
G1 X64.243 Y25.87 E43.97188
G1 X64.243 Y28.87 E44.07181
G1 X54.743 Y28.87 E44.38826
G1 X54.743 Y25.87 E44.48819
G1 X45.763 Y25.87 E44.78732
G1 X45.763 Y18.37 E45.03715
G1 X36.263 Y18.37 E45.35359
G1 X36.263 Y25.87 E45.60342
G1 X29.619 Y25.87 E45.82474
G1 X29.619 Y14.37 E46.2078
G1 X50.808 Y14.37 E46.91362
G1 X50.808 Y11.37 E47.01355
G1 X68.178 Y11.37 E47.59215
G1 X68.178 Y14.37 E47.69208
G0 F2625 X68.428 Y14.37
G0 X68.428 Y14.97
G0 X67.188 Y15.36
;TYPE:SKIN
G1 F900 X88.377 Y15.36 E48.39789
G1 X88.377 Y24.88 E48.71501
G1 X78.463 Y24.88 E49.04525
G1 X78.463 Y16.98 E49.3084
G1 X63.733 Y16.98 E49.79906
G1 X63.733 Y24.88 E50.06221
G1 X63.253 Y24.88 E50.0782
G1 X63.253 Y27.88 E50.17813
G1 X55.733 Y27.88 E50.42863
G1 X55.733 Y24.88 E50.52856
G1 X46.753 Y24.88 E50.82769
G1 X46.753 Y17.38 E51.07751
G1 X35.273 Y17.38 E51.45992
G1 X35.273 Y24.88 E51.70974
G1 X30.609 Y24.88 E51.8651
G1 X30.609 Y15.36 E52.18222
G1 X51.798 Y15.36 E52.88803
G1 X51.798 Y12.36 E52.98796
G1 X67.188 Y12.36 E53.50061
G1 X67.188 Y15.36 E53.60054
G0 F2625 X88.151 Y16.026
G1 F900 X87.71 Y15.585 E53.62131
G0 F2625 X87.003 Y15.585
G1 F900 X88.151 Y16.733 E53.67539
G0 F2625 X88.151 Y17.44
G1 F900 X86.296 Y15.585 E53.76278
G0 F2625 X85.588 Y15.585
G1 F900 X88.151 Y18.147 E53.88349
G0 F2625 X88.151 Y18.855
G1 F900 X84.881 Y15.585 E54.03754
G0 F2625 X84.174 Y15.585
G1 F900 X88.151 Y19.562 E54.22489
G0 F2625 X88.151 Y20.269
G1 F900 X83.467 Y15.585 E54.44554
G0 F2625 X82.76 Y15.585
G1 F900 X88.151 Y20.976 E54.6995
G0 F2625 X88.151 Y21.683
G1 F900 X82.053 Y15.585 E54.98676
G0 F2625 X81.346 Y15.585
G1 F900 X88.151 Y22.39 E55.30733
G0 F2625 X88.151 Y23.097
G1 F900 X80.639 Y15.585 E55.66121
G0 F2625 X79.932 Y15.585
G1 F900 X88.151 Y23.804 E56.04839
G0 F2625 X88.151 Y24.511
G1 F900 X79.224 Y15.585 E56.4689
G0 F2625 X78.517 Y15.585
G1 F900 X87.587 Y24.654 E56.89614
G0 F2625 X86.88 Y24.654
G1 F900 X77.81 Y15.585 E57.32339
G0 F2625 X77.103 Y15.585
G1 F900 X78.273 Y16.754 E57.37848
G0 F2625 X78.687 Y17.169
G1 F900 X86.172 Y24.654 E57.73108
G0 F2625 X85.465 Y24.654
G1 F900 X78.687 Y17.876 E58.05038
G0 F2625 X78.687 Y18.583
G1 F900 X84.758 Y24.654 E58.33637
G0 F2625 X84.051 Y24.654
G1 F900 X78.687 Y19.29 E58.58906
G0 F2625 X78.687 Y19.997
G1 F900 X83.344 Y24.654 E58.80844
G0 F2625 X82.637 Y24.654
G1 F900 X78.687 Y20.704 E58.99452
G0 F2625 X78.687 Y21.411
G1 F900 X81.93 Y24.654 E59.14729
G0 F2625 X81.223 Y24.654
G1 F900 X78.687 Y22.119 E59.26673
G0 F2625 X78.687 Y22.826
G1 F900 X80.516 Y24.654 E59.35287
G0 F2625 X79.809 Y24.654
G1 F900 X78.687 Y23.533 E59.4057
G0 F2625 X78.687 Y24.24
G1 F900 X79.101 Y24.654 E59.4252
G0 F2625 X78.001 Y17.442
G0 X77.566 Y16.754
G1 F900 X76.396 Y15.585 E59.4803
G0 F2625 X75.689 Y15.585
G1 F900 X76.858 Y16.754 E59.53537
G0 F2625 X76.151 Y16.754
G1 F900 X74.982 Y15.585 E59.59044
G0 F2625 X74.275 Y15.585
G1 F900 X75.444 Y16.754 E59.6455
G0 F2625 X74.737 Y16.754
G1 F900 X73.568 Y15.585 E59.70057
G0 F2625 X72.86 Y15.585
G1 F900 X74.03 Y16.754 E59.75567
G0 F2625 X73.323 Y16.754
G1 F900 X72.153 Y15.585 E59.81076
G0 F2625 X71.446 Y15.585
G1 F900 X72.616 Y16.754 E59.86585
G0 F2625 X71.909 Y16.754
G1 F900 X70.739 Y15.585 E59.92094
G0 F2625 X70.032 Y15.585
G1 F900 X71.202 Y16.754 E59.97604
G0 F2625 X70.495 Y16.754
G1 F900 X69.325 Y15.585 E60.03113
G0 F2625 X68.618 Y15.585
G1 F900 X69.787 Y16.754 E60.0862
G0 F2625 X69.08 Y16.754
G1 F900 X67.911 Y15.585 E60.14127
G0 F2625 X67.204 Y15.585
G1 F900 X68.373 Y16.754 E60.19634
G0 F2625 X67.666 Y16.754
G1 F900 X63.496 Y12.585 E60.39275
G0 F2625 X62.789 Y12.585
G1 F900 X66.959 Y16.754 E60.58917
G0 F2625 X66.252 Y16.754
G1 F900 X62.082 Y12.585 E60.78559
G0 F2625 X61.375 Y12.585
G1 F900 X65.545 Y16.754 E60.982
G0 F2625 X64.838 Y16.754
G1 F900 X60.668 Y12.585 E61.17842
G0 F2625 X59.961 Y12.585
G1 F900 X64.131 Y16.754 E61.37484
G0 F2625 X63.507 Y16.838
G1 F900 X59.254 Y12.585 E61.57519
G0 F2625 X58.547 Y12.585
G1 F900 X63.507 Y17.545 E61.80884
G0 F2625 X63.507 Y18.252
G1 F900 X57.839 Y12.585 E62.07583
G0 F2625 X57.132 Y12.585
G1 F900 X63.507 Y18.959 E62.37612
G0 F2625 X63.507 Y19.666
G1 F900 X56.425 Y12.585 E62.70971
G0 F2625 X55.718 Y12.585
G1 F900 X63.507 Y20.373 E63.07661
G0 F2625 X63.507 Y21.08
G1 F900 X55.011 Y12.585 E63.47682
G0 F2625 X54.304 Y12.585
G1 F900 X63.507 Y21.788 E63.91035
G0 F2625 X63.507 Y22.495
G1 F900 X53.597 Y12.585 E64.37719
G0 F2625 X52.89 Y12.585
G1 F900 X63.507 Y23.202 E64.87734
G0 F2625 X63.507 Y23.909
G1 F900 X52.183 Y12.585 E65.41079
G0 F2625 X52.021 Y13.13
G1 F900 X63.507 Y24.616 E65.95187
G0 F2625 X63.027 Y24.843
G1 F900 X52.021 Y13.838 E66.47032
G0 F2625 X52.021 Y14.545
G1 F900 X63.027 Y25.55 E66.98876
G0 F2625 X63.027 Y26.257
G1 F900 X52.021 Y15.252 E67.50721
G0 F2625 X51.647 Y15.585
G1 F900 X63.027 Y26.964 E68.04328
G0 F2625 X63.01 Y27.654
G1 F900 X50.94 Y15.585 E68.61185
G0 F2625 X50.233 Y15.585
G1 F900 X62.303 Y27.654 E69.18042
G0 F2625 X61.596 Y27.654
G1 F900 X49.526 Y15.585 E69.74898
G0 F2625 X48.819 Y15.585
G1 F900 X60.888 Y27.654 E70.31753
G0 F2625 X60.181 Y27.654
G1 F900 X48.112 Y15.585 E70.88608
G0 F2625 X47.405 Y15.585
G1 F900 X59.474 Y27.654 E71.45462
G0 F2625 X58.767 Y27.654
G1 F900 X55.956 Y24.844 E71.58702
G0 F2625 X55.767 Y24.654
G1 F900 X46.698 Y15.585 E72.01424
G0 F2625 X45.99 Y15.585
G1 F900 X55.06 Y24.654 E72.44149
G0 F2625 X54.353 Y24.654
G1 F900 X46.977 Y17.278 E72.78896
G0 F2625 X46.852 Y17.154
G1 F900 X45.283 Y15.585 E72.86287
G0 F2625 X44.576 Y15.585
G1 F900 X46.145 Y17.154 E72.93678
G1 X46.233 Y17.242
G0 F2625 X46.977 Y17.985
G1 F900 X53.646 Y24.654 E73.25094
G0 F2625 X52.938 Y24.654
G1 F900 X46.977 Y18.693 E73.53175
G0 F2625 X46.977 Y19.4
G1 F900 X52.231 Y24.654 E73.77926
G0 F2625 X51.524 Y24.654
G1 F900 X46.977 Y20.107 E73.99346
G0 F2625 X46.977 Y20.814
G1 F900 X50.817 Y24.654 E74.17435
G0 F2625 X50.11 Y24.654
G1 F900 X46.977 Y21.521 E74.32194
G0 F2625 X46.977 Y22.228
G1 F900 X49.403 Y24.654 E74.43623
